static/assets/images/exchanges/astroport.svg

<svg width="303" height="256" viewBox="0 0 303 256" fill="none" xmlns="http://www.w3.org/2000/svg">
<path d="M182.383 168.697V168.626C164.869 168.251 150.777 153.247 150.777 134.762C150.777 153.208 136.736 168.188 119.273 168.618V168.697C136.736 169.127 150.777 184.108 150.777 202.553C150.77 184.077 164.869 169.072 182.383 168.697Z" fill="white"/>
<path d="M175.896 0H127.104C120.812 0 115.051 3.77058 112.168 9.7785L1.06026 241.215C-2.17312 247.959 2.37838 255.992 9.44231 255.992H65.5459C71.896 255.992 77.7002 252.152 80.555 246.065L110.398 182.443C114.454 173.791 114.389 163.574 110.216 154.985L88.74 110.771C82.9 98.7466 91.0268 84.3529 103.655 84.3688L199.454 84.4779C212.082 84.4938 220.18 98.9034 214.318 110.911L190.148 160.445C187.628 165.6 187.584 171.749 190.024 176.951L222.445 246.073C225.3 252.159 231.104 256 237.454 256H293.558C300.622 256 305.173 247.966 301.94 241.223L190.832 9.7785C187.948 3.77058 182.181 0 175.896 0Z" fill="white"/>
</svg>

<svg xmlns="http://www.w3.org/2000/svg" fill="none" viewBox="0 0 303 256"><path fill="#fff" d="M182.383 168.697v-.071c-17.514-.375-31.606-15.379-31.606-33.864 0 18.446-14.041 33.426-31.504 33.856v.079c17.463.43 31.504 15.411 31.504 33.856-.007-18.476 14.092-33.481 31.606-33.856"/><path fill="#fff" d="M175.896 0h-48.792c-6.292 0-12.053 3.77-14.936 9.779L1.06 241.215c-3.233 6.744 1.318 14.777 8.382 14.777h56.104c6.35 0 12.154-3.84 15.009-9.927l29.843-63.622c4.056-8.652 3.991-18.869-.182-27.458L88.74 110.771c-5.84-12.024 2.287-26.418 14.915-26.402l95.799.109c12.628.016 20.726 14.425 14.864 26.433l-24.17 49.534c-2.52 5.155-2.564 11.304-.124 16.506l32.421 69.122c2.855 6.086 8.659 9.927 15.009 9.927h56.104c7.064 0 11.615-8.034 8.382-14.777L190.832 9.779C187.948 3.77 182.181 0 175.896 0"/></svg>
